projects/virtualkubelet/icon/color/virtualkubelet-icon-color.svg

<svg id="Layer_1" data-name="Layer 1" xmlns="http://www.w3.org/2000/svg" viewBox="0 0 360 360"><defs><style>.cls-1{fill:none;}.cls-2{fill:#383d49;}.cls-3{fill:#3a6ede;}</style></defs><title>virtualkubelet-icon-color</title><path class="cls-1" d="M180.103,4.46588,37.335,73.21706,2.06772,227.70631l98.80546,123.89418H259.34131l98.797-123.89418L322.88113,73.21705Z"/><path class="cls-2" d="M321.57,77.06,181.62782,9.6686l-.93017-.44849L39.82692,77.06,5.03487,229.497,102.51894,351.74H258.8763L356.362,229.497ZM113.51216,328.91634,29.73238,223.85921l29.9-131.00372L180.69765,34.55373,301.763,92.85549l29.9,131.00372-83.78,105.05713Z"/><path class="cls-3" d="M39.82692,77.06,176.81064,327.38979,321.57,77.06,179.52156,8.74005"/></svg>

<svg xmlns="http://www.w3.org/2000/svg" role="img" viewBox="-2.02 1.73 365.30 356.80"><path fill="none" d="M180.103 4.466L37.335 73.217 2.068 227.707 100.873 351.6h158.468l98.797-123.894-35.257-154.489z"/><path fill="#383d49" d="M321.57 77.06L181.628 9.669l-.93-.449L39.827 77.06 5.035 229.497l97.484 122.243h156.357l97.486-122.243zM113.512 328.916L29.732 223.86l29.9-131.004 121.066-58.301 121.065 58.301 29.9 131.004-83.78 105.057z"/><path fill="#3a6ede" d="M39.827 77.06L176.81 327.39 321.57 77.06 179.522 8.74"/></svg>
